X: 1
T: Wind that Shakes the Barley
O: arr. Elke Baker
%date: 1800
R: reel
S: printed copy from Potomac Valley Scottish Fiddle Club, in Concord Slow Scottish Session collection
Z: 2015 John Chambers <jc:trillian.mit.edu>
M: C|
L: 1/8
K: D
B |\
"D"A2AB AFED | "G"B2BA BcdB |\
"D"A2AB AFED | "G"gfed "A7"Bcd :|
e |\
"D"f2fd "A7"g2ge | "D"f2fd "G"Bcde |\
"D"f2fd "A7"g2ge | "D"afed "G"Bcd ||
e |\
"D"f2fd "Em"g2ge | "D"f2fd "A"ecBA |\
"D"defg "G"afba | "A7"gfed "G"B2d |]


